X: 21271
T: TOM THUMB
R: Hornpipe
%R: hornpipe, reel
B: W. Hamilton "Universal Tune-Book" Vol. 2 Glasgow 1846 p.127 #1
S: http://s3-eu-west-1.amazonaws.com/itma.dl.printmaterial/book_pdfs/hamiltonvol2web.pdf
Z: 2016 John Chambers <jc:trillian.mit.edu>
M: C
L: 1/8
K: Bb
% - - - - - - - - - - - - - - - - - - - - - - - - -
|:\
B2FD B2FD | BdcB BAGF |\
GABG GFED | E2F2 B,4 :: \
d2dB d2dB | defd B2Bd |
c2cA c2cA | FGFE D2B,2 :: \
deff ffff | gaba gfed |\
efgf edcB | Acgf fedc :|
% - - - - - - - - - - - - - - - - - - - - - - - - -

%%sep 1 1 500
%%sep 1 1 500

